Origami/64x64/apps/outlast.svg

<svg xmlns="http://www.w3.org/2000/svg" width="64" height="64" version="1.1" viewBox="0 0 64 64">
 <path style="opacity:0.2" d="M 32,5 C 17.829865,4.9999755 7.0002141,17.980666 6.9999998,33 7.0002141,48.019334 17.829865,61.000024 32,61 46.170135,61.000024 56.999786,48.019334 57,33 56.999786,17.980666 46.170135,4.9999755 32,5 Z"/>
 <path style="fill:#3a4b37" d="M 32,4 C 17.829865,3.9999755 7.0002141,16.980666 6.9999998,32 7.0002141,47.019334 17.829865,60.000024 32,60 46.170135,60.000024 56.999786,47.019334 57,32 56.999786,16.980666 46.170135,3.9999755 32,4 Z"/>
 <path style="opacity:0.2" d="M 32,11 A 18.999971,22.000361 0 0 0 13,33 18.999971,22.000361 0 0 0 32,55 18.999971,22.000361 0 0 0 51,33 18.999971,22.000361 0 0 0 32,11 Z m 0,8 a 8.9997428,13.999845 0 0 1 9,14 8.9997428,13.999845 0 0 1 -9,14 8.9997428,13.999845 0 0 1 -9,-14 8.9997428,13.999845 0 0 1 9,-14 z"/>
 <path style="fill:#a1eaa4" d="M 32 10 A 18.999971 22.000361 0 0 0 13 32 A 18.999971 22.000361 0 0 0 32 54 A 18.999971 22.000361 0 0 0 51 32 A 18.999971 22.000361 0 0 0 32 10 z M 32 18 A 8.9997428 13.999845 0 0 1 41 32 A 8.9997428 13.999845 0 0 1 32 46 A 8.9997428 13.999845 0 0 1 23 32 A 8.9997428 13.999845 0 0 1 32 18 z"/>
 <path style="opacity:0.1;fill:#ffffff" d="M 32 4 C 17.829865 3.9999755 7.0002143 16.980666 7 32 C 7.0000024 32.167351 7.0090377 32.333171 7.0117188 32.5 C 7.249653 17.694284 17.987754 4.9999758 32 5 C 46.012246 4.9999758 56.750347 17.694284 56.988281 32.5 C 56.990962 32.333171 56.999998 32.167351 57 32 C 56.999786 16.980666 46.170135 3.9999755 32 4 z"/>
 <path style="opacity:0.1;fill:#ffffff" d="M 32 10 A 18.999971 22.000361 0 0 0 13 32 A 18.999971 22.000361 0 0 0 13.017578 32.408203 A 18.999971 22.000361 0 0 1 32 11 A 18.999971 22.000361 0 0 1 50.982422 32.591797 A 18.999971 22.000361 0 0 0 51 32 A 18.999971 22.000361 0 0 0 32 10 z M 40.986328 32.423828 A 8.9997428 13.999845 0 0 1 32 46 A 8.9997428 13.999845 0 0 1 23.013672 32.576172 A 8.9997428 13.999845 0 0 0 23 33 A 8.9997428 13.999845 0 0 0 32 47 A 8.9997428 13.999845 0 0 0 41 33 A 8.9997428 13.999845 0 0 0 40.986328 32.423828 z"/>
</svg>

<svg width="64" height="64" version="1.1" viewBox="0 0 64 64" xmlns="http://www.w3.org/2000/svg">
 <path d="m32 5c-14.170135-2.45e-5 -24.999786 12.980666-25 28 2.143e-4 15.019334 10.829865 28.000024 25 28 14.170135 2.4e-5 24.999786-12.980666 25-28-2.14e-4 -15.019334-10.829865-28.000024-25-28z" style="opacity:.2"/>
 <path d="m32 4c-14.170135-2.45e-5 -24.999786 12.980666-25 28 2.143e-4 15.019334 10.829865 28.000024 25 28 14.170135 2.4e-5 24.999786-12.980666 25-28-2.14e-4 -15.019334-10.829865-28.000024-25-28z" style="fill:#3a4b37"/>
 <path d="m32 11a18.999971 22.000361 0 0 0 -19 22 18.999971 22.000361 0 0 0 19 22 18.999971 22.000361 0 0 0 19 -22 18.999971 22.000361 0 0 0 -19 -22zm0 8a8.9997428 13.999845 0 0 1 9 14 8.9997428 13.999845 0 0 1 -9 14 8.9997428 13.999845 0 0 1 -9 -14 8.9997428 13.999845 0 0 1 9 -14z" style="opacity:.2"/>
 <path d="m32 10a18.999971 22.000361 0 0 0 -19 22 18.999971 22.000361 0 0 0 19 22 18.999971 22.000361 0 0 0 19 -22 18.999971 22.000361 0 0 0 -19 -22zm0 8a8.9997428 13.999845 0 0 1 9 14 8.9997428 13.999845 0 0 1 -9 14 8.9997428 13.999845 0 0 1 -9 -14 8.9997428 13.999845 0 0 1 9 -14z" style="fill:#a1eaa4"/>
 <path d="m32 4c-14.170135-2.45e-5 -24.999786 12.980666-25 28 2.4e-6 0.167351 0.0090377 0.333171 0.0117188 0.5 0.2379342-14.805716 10.976035-27.500024 24.988281-27.5 14.012246-2.42e-5 24.750347 12.694284 24.988281 27.5 0.002681-0.166829 0.011717-0.332649 0.011719-0.5-2.14e-4 -15.019334-10.829865-28.000024-25-28z" style="fill:#ffffff;opacity:.1"/>
 <path d="M 32 10 A 18.999971 22.000361 0 0 0 13 32 A 18.999971 22.000361 0 0 0 13.017578 32.408203 A 18.999971 22.000361 0 0 1 32 11 A 18.999971 22.000361 0 0 1 50.982422 32.591797 A 18.999971 22.000361 0 0 0 51 32 A 18.999971 22.000361 0 0 0 32 10 z M 40.986328 32.423828 A 8.9997428 13.999845 0 0 1 32 46 A 8.9997428 13.999845 0 0 1 23.013672 32.576172 A 8.9997428 13.999845 0 0 0 23 33 A 8.9997428 13.999845 0 0 0 32 47 A 8.9997428 13.999845 0 0 0 41 33 A 8.9997428 13.999845 0 0 0 40.986328 32.423828 z" style="fill:#ffffff;opacity:.1"/>
</svg>
